icons/blazor-dark.svg

<svg width="256" height="256" viewBox="0 0 256 256" fill="none" xmlns="http://www.w3.org/2000/svg">
<path d="M196 0H60C26.8629 0 0 26.8629 0 60V196C0 229.137 26.8629 256 60 256H196C229.137 256 256 229.137 256 196V60C256 26.8629 229.137 0 196 0Z" fill="#282828"/>
<path d="M232.534 93.4869C227.951 122.276 213.324 148.502 191.257 167.498C169.189 186.495 141.112 197.031 112.021 197.23C106.129 197.46 100.229 197.104 94.407 196.168C82.2322 194.096 71.1346 187.903 62.9652 178.623C54.7959 169.343 50.0489 157.536 49.5159 145.173C49.5685 131.341 55.0633 118.088 64.8075 108.291C74.5518 98.4947 87.7589 92.945 101.562 92.8471C115.364 92.7492 128.648 98.111 138.53 107.768C148.412 117.426 154.093 130.599 154.341 144.429C154.562 153.13 150.799 160.77 143.061 160.991C134.793 160.991 130.924 155.078 130.924 147.12V124.991C130.929 121.41 129.519 117.973 127.004 115.431C124.488 112.888 121.07 111.446 117.497 111.421H98.9827C93.5987 111.385 88.2916 112.702 83.5463 115.251C78.801 117.8 74.7687 121.5 71.8178 126.013C68.8669 130.526 67.0914 135.708 66.6535 141.085C66.2156 146.463 67.1293 151.864 69.3111 156.797C71.4929 161.729 74.8733 166.036 79.1434 169.322C83.4135 172.608 88.4373 174.77 93.7558 175.609C99.0743 176.449 104.518 175.94 109.59 174.129C114.661 172.317 119.199 169.261 122.788 165.24L123.433 164.266L124.087 165.337C126.313 168.368 129.251 170.801 132.642 172.42C136.032 174.038 139.769 174.792 143.52 174.614C150.207 174.127 156.44 171.041 160.887 166.013C165.335 160.986 167.646 154.415 167.326 147.704C167.392 141.943 166.748 136.197 165.409 130.594C161.986 114.761 152.832 100.759 139.714 91.2914C126.595 81.8234 110.442 77.5597 94.372 79.323C78.3014 81.0863 63.4521 88.7517 52.6892 100.84C41.9263 112.928 36.0126 128.583 36.0893 144.783C36.2942 161.956 43.1348 178.381 55.1733 190.605C67.2117 202.828 83.5104 209.899 100.643 210.331C100.643 210.331 105.493 210.774 110.952 210.641C137.523 210.474 163.494 202.71 185.814 188.263C186.132 188.042 186.45 188.485 186.238 188.803C175.372 200.532 162.085 209.747 147.303 215.805C132.52 221.864 116.597 224.62 100.643 223.883C90.2131 224.073 79.8525 222.144 70.1866 218.212C60.5207 214.28 51.7498 208.427 44.4031 201.005C37.0564 193.583 31.2861 184.747 27.4402 175.03C23.5944 165.312 21.7529 154.915 22.0266 144.465C22.0317 132.006 24.9367 119.721 30.5107 108.585C36.0848 97.4488 44.1741 87.7692 54.1358 80.3154C67.523 70.4374 83.7006 65.0863 100.325 65.0371H125.174C134.881 65.0298 144.48 62.997 153.36 59.0681C162.24 55.1393 170.206 49.4005 176.751 42.2171C176.889 42.0641 177.071 41.9587 177.273 41.9162C177.476 41.8728 177.688 41.8947 177.878 41.979C178.069 42.0632 178.228 42.2054 178.333 42.3853C178.437 42.5645 178.483 42.7717 178.465 42.9784C177.413 54.1683 173.696 64.9418 167.627 74.3935C167.534 74.5546 167.491 74.7393 167.503 74.9246C167.518 75.1123 167.587 75.2915 167.701 75.4408C167.815 75.59 167.971 75.7028 168.148 75.7655C168.323 75.8303 168.513 75.8426 168.695 75.801C180.165 73.2045 190.866 67.9465 199.938 60.4501C209.009 52.9536 216.199 43.4279 220.927 32.6395C221.047 32.4449 221.214 32.2836 221.413 32.1703C221.611 32.0587 221.835 32 222.062 32C222.289 32 222.513 32.0587 222.711 32.1703C222.907 32.2842 223.071 32.4455 223.188 32.6395C232.925 51.3275 236.211 72.7296 232.534 93.4869ZM100.573 124.707C96.7501 124.707 93.0133 125.843 89.8349 127.971C86.6566 130.099 84.1793 133.124 82.7165 136.663C81.2537 140.202 80.8709 144.097 81.6167 147.854C82.3624 151.611 84.2032 155.062 86.9062 157.77C89.6091 160.479 93.0529 162.323 96.8021 163.071C100.551 163.818 104.437 163.434 107.969 161.969C111.501 160.503 114.519 158.02 116.643 154.835C118.766 151.65 119.9 147.906 119.9 144.075V126C119.883 125.653 119.738 125.325 119.493 125.08C119.248 124.834 118.921 124.689 118.575 124.672L100.573 124.707Z" fill="#5C2D91"/>
</svg>

<svg xmlns="http://www.w3.org/2000/svg" width="256" height="256" fill="none"><path fill="#282828" d="M196 0H60C26.863 0 0 26.863 0 60v136c0 33.137 26.863 60 60 60h136c33.137 0 60-26.863 60-60V60c0-33.137-26.863-60-60-60"/><path fill="#5C2D91" d="M232.534 93.487a123.2 123.2 0 0 1-41.277 74.011 122.74 122.74 0 0 1-79.236 29.732 89 89 0 0 1-17.614-1.062 53.95 53.95 0 0 1-31.442-17.545 54.16 54.16 0 0 1-13.45-33.45 52.6 52.6 0 0 1 15.293-36.882 52.36 52.36 0 0 1 36.754-15.444 52.36 52.36 0 0 1 36.968 14.921 52.58 52.58 0 0 1 15.811 36.661c.221 8.701-3.542 16.341-11.28 16.562-8.268 0-12.137-5.913-12.137-13.871v-22.129a13.57 13.57 0 0 0-3.92-9.56 13.5 13.5 0 0 0-9.507-4.01H98.983a32.2 32.2 0 0 0-15.437 3.83 32.25 32.25 0 0 0-11.728 10.762 32.35 32.35 0 0 0-2.507 30.784 32.3 32.3 0 0 0 9.832 12.525 32.18 32.18 0 0 0 30.447 4.807 32.2 32.2 0 0 0 13.198-8.889l.645-.974.654 1.071a22.8 22.8 0 0 0 8.555 7.083 22.75 22.75 0 0 0 10.878 2.194 25.68 25.68 0 0 0 17.367-8.601 25.78 25.78 0 0 0 6.439-18.309 70.2 70.2 0 0 0-1.917-17.11 65.55 65.55 0 0 0-25.695-39.303 65.3 65.3 0 0 0-45.342-11.968 65.36 65.36 0 0 0-41.683 21.517 65.62 65.62 0 0 0-16.6 43.943 66.43 66.43 0 0 0 19.084 45.822 66.16 66.16 0 0 0 45.47 19.726s4.85.443 10.309.31a139.4 139.4 0 0 0 74.862-22.378c.318-.221.636.222.424.54a109.9 109.9 0 0 1-38.935 27.002 109.7 109.7 0 0 1-46.66 8.078 77.1 77.1 0 0 1-30.456-5.671 77.2 77.2 0 0 1-25.784-17.207A77.4 77.4 0 0 1 27.44 175.03a77.55 77.55 0 0 1-5.413-30.565 80.2 80.2 0 0 1 8.484-35.88 80.06 80.06 0 0 1 23.625-28.27 78.2 78.2 0 0 1 46.189-15.278h24.849a69.8 69.8 0 0 0 28.186-5.969 69.9 69.9 0 0 0 23.391-16.85.985.985 0 0 1 1.582.168c.104.179.15.386.132.592a70.3 70.3 0 0 1-10.838 31.416.94.94 0 0 0-.124.53.98.98 0 0 0 1.192.877 75.1 75.1 0 0 0 31.243-15.35 75.3 75.3 0 0 0 20.989-27.812 1.323 1.323 0 0 1 1.784-.47c.196.115.36.276.477.47a95.62 95.62 0 0 1 9.346 60.848m-131.961 31.22a19.3 19.3 0 0 0-10.738 3.264 19.36 19.36 0 0 0-7.118 8.692 19.4 19.4 0 0 0-1.1 11.191 19.4 19.4 0 0 0 5.29 9.916 19.3 19.3 0 0 0 21.063 4.199 19.34 19.34 0 0 0 8.673-7.134 19.4 19.4 0 0 0 3.257-10.76V126a1.397 1.397 0 0 0-1.325-1.328z"/></svg>
